assets/images/about_img-rotating (2).svg

<svg width="100" height="95" viewBox="0 0 100 95" fill="none" xmlns="http://www.w3.org/2000/svg">
<path d="M35.2848 95C35.0337 95.0007 34.7841 94.9625 34.5447 94.8869C32.2281 94.1497 31.52 90.0824 30.844 86.1625C30.2396 82.7047 29.6104 79.1314 27.8662 77.8633C27.1112 77.3153 25.9665 77.0499 24.3653 77.0499C22.7642 77.0499 20.8053 77.3227 18.9377 77.5856C17.07 77.8486 15.1482 78.1214 13.5273 78.1214C11.4795 78.1214 10.2164 77.6962 9.55025 76.7845C8.16126 74.8847 9.94499 71.2451 11.6695 67.7258C13.2361 64.531 14.857 61.2157 14.1687 59.0997C13.5149 57.0968 10.468 55.497 7.26076 53.8061C3.69083 51.9261 0 49.9846 0 47.5C0 45.0154 3.70069 43.0764 7.26076 41.1939C10.468 39.503 13.5149 37.9032 14.1687 35.9003C14.857 33.7843 13.2361 30.4739 11.6695 27.2742C9.94252 23.7549 8.16126 20.1152 9.55025 18.2155C10.2164 17.3038 11.4795 16.8786 13.5273 16.8786C15.1482 16.8786 17.075 17.1514 18.9377 17.4144C20.8003 17.6773 22.737 17.9501 24.3653 17.9501C25.9936 17.9501 27.1112 17.6847 27.8662 17.1367C29.6154 15.8686 30.2396 12.2953 30.844 8.83745C31.5274 4.91762 32.2355 0.862621 34.5447 0.113061C34.7841 0.037553 35.0337 -0.000586873 35.2848 6.82566e-06C37.3548 6.82566e-06 39.928 2.47971 42.4173 4.87584C45.0176 7.38256 47.7093 9.9753 49.9988 9.9753C52.2883 9.9753 54.9774 7.38256 57.5802 4.87584C60.0696 2.47971 62.6428 6.82566e-06 64.7127 6.82566e-06C64.9638 -0.000586873 65.2135 0.037553 65.4529 0.113061C67.7695 0.862621 68.4775 4.91762 69.1535 8.83745C69.758 12.2953 70.3871 15.8686 72.1314 17.1367C72.8863 17.6847 74.031 17.9501 75.6322 17.9501C77.2334 17.9501 79.1923 17.6773 81.0599 17.4144C82.9275 17.1514 84.8519 16.8786 86.4728 16.8786C88.5205 16.8786 89.7836 17.3038 90.4498 18.2155C91.8388 20.1152 90.055 23.7549 88.3305 27.2742C86.7639 30.469 85.143 33.7843 85.8313 35.9003C86.4851 37.9032 89.532 39.503 92.7393 41.1939C96.3092 43.0739 100 45.0154 100 47.5C100 49.9846 96.2993 51.9236 92.7393 53.8061C89.532 55.497 86.4851 57.0968 85.8313 59.0997C85.143 61.2157 86.7639 64.5261 88.3305 67.7258C90.0575 71.2451 91.8388 74.8847 90.4498 76.7845C89.7836 77.6962 88.5205 78.1214 86.4728 78.1214C84.8519 78.1214 82.925 77.8486 81.0624 77.5856C79.1997 77.3227 77.263 77.0499 75.6347 77.0499C74.0064 77.0499 72.8888 77.3153 72.1338 77.8633C70.3846 79.1314 69.7605 82.7047 69.156 86.1625C68.4726 90.0947 67.7645 94.1374 65.4553 94.8869C65.2159 94.9624 64.9663 95.0006 64.7152 95C62.6453 95 60.072 92.5203 57.5827 90.1241C54.9824 87.6174 52.2907 85.0247 50.0012 85.0247C47.7117 85.0247 45.0201 87.6174 42.4198 90.1241C39.9304 92.5203 37.3572 95 35.2873 95H35.2848Z" fill="#E9FFE8"/>
<path fill-rule="evenodd" clip-rule="evenodd" d="M35.2822 94L35.2848 94L35.2873 94C35.9684 94 36.8989 93.568 38.0922 92.6636C39.2491 91.7869 40.4699 90.613 41.7263 89.4037L41.7468 89.3839C43.0291 88.1477 44.3913 86.8346 45.7277 85.8339C47.0425 84.8494 48.5126 84.0247 50.0012 84.0247C51.4898 84.0247 52.96 84.8494 54.2748 85.8339C55.6111 86.8345 56.9732 88.1476 58.2555 89.3837L58.2762 89.4037C59.5326 90.613 60.7534 91.7869 61.9102 92.6636C63.1035 93.568 64.034 94 64.7152 94H64.7175C64.8644 94.0003 65.0105 93.9782 65.1506 93.9345C65.8157 93.7163 66.4325 92.9487 66.9701 91.3918C67.4896 89.8874 67.8251 87.9803 68.1708 85.9913L68.178 85.95C68.4753 84.2489 68.791 82.4431 69.2587 80.9015C69.7182 79.387 70.3883 77.8936 71.5469 77.0537C72.5558 76.3215 73.9293 76.0499 75.6347 76.0499C77.3376 76.0499 79.3362 76.332 81.17 76.5909L81.2021 76.5954C83.0857 76.8614 84.9366 77.1214 86.4728 77.1214C88.4493 77.1214 89.274 76.6986 89.6423 76.1945C90.0301 75.6642 90.0812 74.7139 89.6027 73.1561C89.1432 71.6601 88.3064 69.9468 87.4328 68.1664L87.4152 68.1305C86.6441 66.5555 85.8251 64.8828 85.29 63.3326C84.7636 61.8076 84.4285 60.1793 84.8803 58.7904L84.8807 58.7894C85.3157 57.4568 86.4834 56.3967 87.7584 55.5138C89.0433 54.624 90.6372 53.7838 92.2021 52.9589L92.2983 52.9081C94.0915 51.9599 95.8167 51.0477 97.1035 50.0797C98.4425 49.0725 99 48.2289 99 47.5C99 46.77 98.4435 45.9257 97.1068 44.919C95.8155 43.9466 94.0797 43.03 92.2733 42.0787L92.2021 42.0411C90.6372 41.2162 89.0433 40.376 87.7584 39.4862C86.4834 38.6033 85.3157 37.5432 84.8807 36.2106L84.8803 36.2096C84.4286 34.8208 84.7636 33.1913 85.29 31.6656C85.828 30.1062 86.653 28.4238 87.428 26.8433L87.4325 26.8341C88.3052 25.0533 89.1419 23.34 89.6018 21.8437C90.0807 20.2856 90.0301 19.3359 89.6425 18.8058C89.2743 18.3017 88.4493 17.8786 86.4728 17.8786C84.9366 17.8786 83.0884 18.1386 81.1993 18.4046C79.3517 18.6648 77.3177 18.9501 75.6322 18.9501C73.956 18.9501 72.554 18.6792 71.5439 17.9459C70.3887 17.1061 69.7182 15.613 69.2582 14.0989C68.787 12.5478 68.4691 10.7296 68.1701 9.01878L68.1685 9.00964L68.1681 9.00739C67.8262 7.02491 67.4925 5.11805 66.9731 3.61253C66.4354 2.05391 65.8167 1.28383 65.1485 1.06564C65.0083 1.02181 64.8621 0.999656 64.7151 1L64.7127 1.00001C64.0316 1.00001 63.1011 1.43199 61.9078 2.33636C60.7509 3.21306 59.5301 4.38699 58.2737 5.5963L58.2368 5.63187C56.9583 6.86323 55.6018 8.16961 54.2715 9.166C52.957 10.1504 51.4875 10.9753 49.9988 10.9753C48.5102 10.9753 47.04 10.1505 45.7252 9.16607C44.3889 8.16543 43.0267 6.85234 41.7444 5.61619L41.7238 5.5963C40.4675 4.38699 39.2466 3.21306 38.0898 2.33636C36.8965 1.43199 35.966 1.00001 35.2848 1.00001H35.2825C35.1356 0.999657 34.9896 1.02175 34.8496 1.06547C34.1852 1.28332 33.5681 2.05277 33.03 3.61253C32.5103 5.11882 32.1749 7.02599 31.8291 9.0092L31.822 9.05001C31.5247 10.751 31.209 12.5569 30.7413 14.0985C30.2819 15.6127 29.6119 17.1059 28.4537 17.9459C27.4447 18.6784 26.071 18.9501 24.3653 18.9501C22.6624 18.9501 20.6637 18.668 18.8299 18.4091L18.7979 18.4046C16.9143 18.1386 15.0634 17.8786 13.5273 17.8786C11.5507 17.8786 10.726 18.3014 10.3577 18.8055C9.96994 19.3358 9.91879 20.2861 10.3973 21.8439C10.8568 23.3399 11.6936 25.0532 12.5672 26.8336L12.5848 26.8695C13.3559 28.4445 14.1749 30.1172 14.71 31.6674C15.2364 33.1924 15.5715 34.8207 15.1197 36.2096L15.1193 36.2106C14.6843 37.5432 13.5166 38.6033 12.2416 39.4862C10.9567 40.3759 9.3628 41.2162 7.79797 42.0411L7.72821 42.0779L7.7271 42.0785L7.70158 42.092C5.90841 43.0401 4.1833 43.9523 2.89648 44.9203C1.5575 45.9275 1 46.7711 1 47.5C1 48.23 1.55655 49.0743 2.89324 50.081C4.18453 51.0534 5.92034 51.97 7.72672 52.9213L7.79797 52.9589C9.3628 53.7838 10.9567 54.6241 12.2416 55.5138C13.5166 56.3967 14.6843 57.4568 15.1193 58.7894L15.1197 58.7904C15.5715 60.1792 15.2364 61.8087 14.71 63.3344C14.172 64.8938 13.3471 66.5761 12.5721 68.1565L12.5675 68.1659C12.5674 68.166 12.5675 68.1658 12.5675 68.1659C11.6949 69.9466 10.8581 71.66 10.3982 73.1563C9.91926 74.7144 9.96989 75.6641 10.3575 76.1942C10.7258 76.6983 11.5507 77.1214 13.5273 77.1214C15.0627 77.1214 16.9073 76.8616 18.7955 76.5958L18.7982 76.5954C20.6459 76.3352 22.6799 76.0499 24.3653 76.0499C26.0416 76.0499 27.4436 76.3208 28.4537 77.0541C29.6088 77.8939 30.2793 79.3869 30.7393 80.9011C31.2106 82.4523 31.5285 84.2707 31.8275 85.9816L31.8295 85.9926C32.1714 87.9753 32.5051 89.8852 33.0245 91.3923C33.5634 92.9559 34.1822 93.7215 34.8468 93.9336C34.9876 93.978 35.1345 94.0004 35.2822 94ZM34.5447 94.8869C32.2281 94.1497 31.52 90.0824 30.844 86.1625C30.2396 82.7047 29.6104 79.1314 27.8662 77.8633C27.1112 77.3153 25.9665 77.0499 24.3653 77.0499C22.7642 77.0499 20.8053 77.3227 18.9377 77.5856L18.8854 77.593C17.0342 77.8536 15.133 78.1214 13.5273 78.1214C11.4795 78.1214 10.2164 77.6962 9.55025 76.7845C8.16138 74.8849 9.94468 71.2457 11.6691 67.7268L11.6695 67.7258C13.2361 64.531 14.857 61.2157 14.1687 59.0997C13.5174 57.1045 10.4914 55.5092 7.29766 53.8256L7.2512 53.8011C3.68424 51.9226 0 49.9824 0 47.5C0 45.033 3.64852 43.1038 7.18518 41.2338L7.26076 41.1939L7.29764 41.1744C10.4914 39.4908 13.5174 37.8955 14.1687 35.9003C14.857 33.7844 13.2364 30.4744 11.6698 27.2748C9.94285 23.7556 8.16126 20.1152 9.55025 18.2155C10.2164 17.3038 11.4795 16.8786 13.5273 16.8786C15.1428 16.8786 17.0623 17.1496 18.9193 17.4118L18.9377 17.4144C20.8003 17.6773 22.737 17.9501 24.3653 17.9501C25.9936 17.9501 27.1112 17.6847 27.8662 17.1367C29.6149 15.8689 30.2392 12.2973 30.8435 8.84049L30.844 8.83745C31.5274 4.91762 32.2355 0.862621 34.5447 0.113061C34.7841 0.037553 35.0337 -0.000586873 35.2848 6.82566e-06C37.3518 6.82566e-06 39.9207 2.4727 42.4067 4.86568L42.4173 4.87584C45.0176 7.38257 47.7093 9.9753 49.9988 9.9753C52.2853 9.9753 54.9705 7.38926 57.5701 4.88556L57.5908 4.86571C60.0768 2.47272 62.6457 6.82566e-06 64.7127 6.82566e-06C64.9638 -0.000586873 65.2135 0.037553 65.4529 0.113061C67.7695 0.862621 68.4775 4.91762 69.1535 8.83745C69.758 12.2953 70.3871 15.8686 72.1314 17.1367C72.8863 17.6847 74.031 17.9501 75.6322 17.9501C77.2334 17.9501 79.1923 17.6773 81.0599 17.4144L81.1039 17.4082C82.9577 17.1471 84.8646 16.8786 86.4728 16.8786C88.5205 16.8786 89.7836 17.3038 90.4498 18.2155C91.8386 20.1151 90.0553 23.7543 88.331 27.2732L88.3305 27.2742C86.7639 30.469 85.143 33.7843 85.8313 35.9003C86.4826 37.8955 89.5086 39.4908 92.7023 41.1744L92.7488 41.1989C96.3158 43.0774 100 45.0176 100 47.5C100 49.967 96.3515 51.8962 92.8148 53.7662L92.7393 53.8061L92.7023 53.8256C89.5086 55.5092 86.4826 57.1045 85.8313 59.0997C85.143 61.2156 86.7636 64.5256 88.3302 67.7252C90.0571 71.2444 91.8388 74.8848 90.4498 76.7845C89.7836 77.6962 88.5205 78.1214 86.4728 78.1214C84.8572 78.1214 82.9377 77.8504 81.0807 77.5882L81.0624 77.5856C79.1997 77.3227 77.263 77.0499 75.6347 77.0499C74.0064 77.0499 72.8888 77.3153 72.1338 77.8633C70.3851 79.1311 69.7608 82.7026 69.1565 86.1595L69.156 86.1625C68.4726 90.0947 67.7645 94.1374 65.4553 94.8869C65.2159 94.9624 64.9663 95.0006 64.7152 95C62.6482 95 60.0793 92.5273 57.5933 90.1343L57.5827 90.1241C54.9824 87.6174 52.2907 85.0247 50.0012 85.0247C47.7117 85.0247 45.0201 87.6174 42.4198 90.1241L42.4091 90.1344C39.9231 92.5273 37.3543 95 35.2873 95H35.2848C35.0337 95.0007 34.7841 94.9625 34.5447 94.8869Z" fill="#383838"/>
</svg>

<svg width="100" height="95" fill="none" xmlns="http://www.w3.org/2000/svg"><path d="M35.285 95c-.251 0-.5-.037-.74-.113-2.317-.737-3.025-4.805-3.701-8.725-.604-3.457-1.234-7.03-2.978-8.299-.755-.548-1.9-.813-3.5-.813-1.602 0-3.56.273-5.428.536-1.868.263-3.79.535-5.41.535-2.049 0-3.312-.425-3.978-1.337-1.389-1.9.395-5.539 2.12-9.058 1.566-3.195 3.187-6.51 2.499-8.626-.654-2.003-3.701-3.603-6.908-5.294C3.69 51.926 0 49.985 0 47.5s3.7-4.424 7.26-6.306c3.208-1.691 6.255-3.29 6.909-5.294.688-2.116-.933-5.426-2.5-8.626-1.726-3.52-3.508-7.159-2.119-9.059.666-.911 1.93-1.336 3.977-1.336 1.621 0 3.548.272 5.41.535 1.863.263 3.8.536 5.428.536 1.629 0 2.746-.265 3.501-.813 1.75-1.268 2.374-4.842 2.978-8.3.683-3.92 1.392-7.974 3.7-8.724.24-.075.49-.114.74-.113 2.07 0 4.644 2.48 7.133 4.876 2.6 2.507 5.292 5.1 7.582 5.1s4.978-2.593 7.581-5.1C60.07 2.48 62.643 0 64.713 0c.25 0 .5.038.74.113 2.316.75 3.025 4.805 3.7 8.724.605 3.458 1.234 7.032 2.978 8.3.755.548 1.9.813 3.501.813s3.56-.273 5.428-.536c1.867-.263 3.792-.535 5.413-.535 2.047 0 3.31.425 3.977 1.336 1.389 1.9-.395 5.54-2.12 9.06-1.566 3.194-3.187 6.51-2.499 8.625.654 2.003 3.701 3.603 6.908 5.294C96.31 43.074 100 45.015 100 47.5s-3.7 4.424-7.26 6.306c-3.208 1.691-6.255 3.29-6.909 5.294-.688 2.116.933 5.426 2.5 8.626 1.727 3.52 3.508 7.159 2.119 9.058-.666.912-1.93 1.337-3.977 1.337-1.621 0-3.548-.272-5.41-.535-1.863-.263-3.8-.536-5.428-.536-1.629 0-2.746.265-3.501.813-1.75 1.268-2.374 4.842-2.978 8.3-.683 3.932-1.392 7.974-3.7 8.724-.24.075-.49.114-.74.113-2.07 0-4.644-2.48-7.133-4.876-2.6-2.507-5.292-5.1-7.582-5.1s-4.98 2.593-7.581 5.1C39.93 92.52 37.357 95 35.287 95h-.002Z" fill="#E9FFE8"/><path fill-rule="evenodd" clip-rule="evenodd" d="M35.282 94h.005c.681 0 1.612-.432 2.805-1.336 1.157-.877 2.378-2.051 3.634-3.26l.02-.02c1.283-1.236 2.645-2.55 3.982-3.55 1.314-.985 2.785-1.81 4.273-1.81 1.489 0 2.959.825 4.274 1.81 1.336 1 2.698 2.314 3.98 3.55l.021.02c1.257 1.209 2.477 2.383 3.634 3.26 1.194.904 2.124 1.336 2.805 1.336h.002c.147 0 .293-.022.434-.066.665-.218 1.282-.985 1.82-2.542.519-1.505.854-3.412 1.2-5.4l.007-.042c.297-1.701.613-3.507 1.08-5.049.46-1.514 1.13-3.007 2.289-3.847 1.009-.733 2.382-1.004 4.088-1.004 1.703 0 3.701.282 5.535.54l.032.005c1.884.266 3.735.526 5.27.526 1.977 0 2.802-.422 3.17-.926.388-.53.44-1.481-.04-3.039-.459-1.496-1.296-3.21-2.17-4.99l-.017-.035c-.77-1.576-1.59-3.248-2.125-4.798-.526-1.525-.862-3.154-.41-4.543.436-1.333 1.603-2.393 2.878-3.276 1.285-.89 2.88-1.73 4.444-2.555l.096-.05c1.793-.95 3.519-1.861 4.805-2.83C98.444 49.073 99 48.23 99 47.5c0-.73-.556-1.574-1.893-2.581-1.291-.972-3.027-1.889-4.834-2.84l-.07-.038c-1.566-.825-3.16-1.665-4.445-2.555-1.275-.883-2.442-1.943-2.877-3.275v-.001c-.452-1.39-.117-3.019.409-4.544.538-1.56 1.363-3.242 2.138-4.823l.005-.009c.872-1.78 1.709-3.494 2.169-4.99.479-1.558.428-2.508.04-3.038-.368-.504-1.193-.927-3.17-.927-1.535 0-3.384.26-5.273.526-1.847.26-3.881.545-5.567.545-1.676 0-3.078-.27-4.088-1.004-1.155-.84-1.826-2.333-2.286-3.847-.471-1.551-.789-3.37-1.088-5.08l-.002-.01v-.002c-.342-1.982-.675-3.889-1.195-5.394-.538-1.56-1.156-2.33-1.825-2.547A1.441 1.441 0 0 0 64.715 1h-.002c-.681 0-1.612.432-2.805 1.336-1.157.877-2.378 2.051-3.634 3.26l-.037.036c-1.279 1.231-2.635 2.538-3.965 3.534-1.315.984-2.785 1.81-4.273 1.81-1.489 0-2.959-.826-4.274-1.81-1.336-1-2.698-2.314-3.98-3.55l-.021-.02c-1.256-1.209-2.477-2.383-3.634-3.26C36.896 1.432 35.966 1 35.285 1h-.002a1.44 1.44 0 0 0-.433.065c-.665.218-1.282.988-1.82 2.548-.52 1.506-.855 3.413-1.2 5.396l-.008.041c-.297 1.701-.613 3.507-1.08 5.048-.46 1.515-1.13 3.008-2.288 3.848-1.01.732-2.383 1.004-4.089 1.004-1.703 0-3.701-.282-5.535-.54l-.032-.005c-1.884-.266-3.735-.526-5.27-.526-1.977 0-2.802.422-3.17.926-.388.53-.44 1.481.04 3.039.459 1.496 1.296 3.21 2.17 4.99l.017.035c.77 1.576 1.59 3.248 2.125 4.798.526 1.525.861 3.154.41 4.543-.436 1.333-1.603 2.393-2.878 3.276-1.285.89-2.88 1.73-4.444 2.555l-.07.037-.026.014c-1.794.948-3.519 1.86-4.806 2.828C1.558 45.928 1 46.771 1 47.5c0 .73.557 1.574 1.893 2.581 1.292.972 3.027 1.889 4.834 2.84l.071.038c1.565.825 3.159 1.665 4.444 2.555 1.275.883 2.442 1.943 2.877 3.275v.001c.453 1.39.117 3.019-.409 4.544-.538 1.56-1.363 3.242-2.138 4.822l-.004.01c-.873 1.78-1.71 3.494-2.17 4.99-.479 1.558-.428 2.508-.04 3.038.368.504 1.193.927 3.17.927 1.535 0 3.38-.26 5.268-.525h.002c1.848-.26 3.882-.546 5.567-.546 1.677 0 3.079.27 4.089 1.004 1.155.84 1.825 2.333 2.285 3.847.472 1.551.79 3.37 1.088 5.08l.002.012c.342 1.982.676 3.892 1.196 5.4.538 1.563 1.157 2.329 1.822 2.54.14.045.288.067.435.067Zm-.737.887c-2.317-.737-3.025-4.805-3.701-8.725-.604-3.457-1.234-7.03-2.978-8.299-.755-.548-1.9-.813-3.5-.813-1.602 0-3.56.273-5.428.536l-.053.007c-1.85.26-3.752.528-5.358.528-2.047 0-3.31-.425-3.977-1.337-1.389-1.9.395-5.538 2.12-9.057v-.001c1.566-3.195 3.187-6.51 2.499-8.626-.652-1.995-3.678-3.59-6.871-5.274L7.25 53.8C3.684 51.923 0 49.982 0 47.5c0-2.467 3.649-4.396 7.185-6.266l.076-.04.037-.02c3.193-1.683 6.22-3.279 6.87-5.274.689-2.116-.932-5.426-2.498-8.625-1.727-3.52-3.509-7.16-2.12-9.06.666-.911 1.93-1.336 3.977-1.336 1.616 0 3.535.27 5.392.533l.019.002c1.862.263 3.799.536 5.427.536 1.629 0 2.746-.265 3.501-.813 1.749-1.268 2.373-4.84 2.977-8.297l.001-.003c.683-3.92 1.392-7.974 3.7-8.724.24-.075.49-.114.74-.113 2.068 0 4.637 2.473 7.123 4.866l.01.01c2.6 2.507 5.292 5.1 7.582 5.1 2.286 0 4.971-2.587 7.571-5.09l.02-.02C60.078 2.473 62.647 0 64.714 0c.25 0 .5.038.74.113 2.316.75 3.025 4.805 3.7 8.724.605 3.458 1.234 7.032 2.978 8.3.755.548 1.9.813 3.501.813s3.56-.273 5.428-.536l.044-.006c1.854-.26 3.76-.53 5.369-.53 2.047 0 3.31.426 3.977 1.337 1.389 1.9-.395 5.54-2.119 9.058v.001c-1.567 3.195-3.188 6.51-2.5 8.626.652 1.995 3.678 3.59 6.871 5.274l.047.025C96.316 43.077 100 45.018 100 47.5c0 2.467-3.648 4.396-7.185 6.266l-.076.04-.037.02c-3.193 1.683-6.22 3.279-6.87 5.274-.689 2.116.932 5.426 2.498 8.625 1.727 3.52 3.509 7.16 2.12 9.06-.666.911-1.93 1.336-3.977 1.336-1.616 0-3.535-.27-5.392-.533l-.019-.002c-1.862-.263-3.799-.536-5.427-.536-1.629 0-2.746.265-3.501.813-1.749 1.268-2.373 4.84-2.978 8.296v.003c-.683 3.933-1.392 7.975-3.7 8.725-.24.075-.49.114-.74.113-2.068 0-4.637-2.473-7.123-4.866l-.01-.01c-2.6-2.507-5.292-5.1-7.582-5.1s-4.98 2.593-7.581 5.1l-.01.01C39.922 92.527 37.353 95 35.286 95h-.002c-.251 0-.5-.037-.74-.113Z" fill="#383838"/></svg>
